X: 279
T: Benim Cürmüm Nihayetsiz
C: Akın Özkan
O: Turkey
F: http://compmusic.upf.edu/node/140
N: nikriz--agirsemai--aksaksemai--benim_curmum--akin_ozkan
N: makam= nikriz
N: form= agirsemai
N: usul= aksaksemai = 10/8
M: 10/8
L: 1/16
K: C _7/8B ^3/4f ^c 
Q: 1/4=108
%%MIDI tuningsystem comma53
z4 G2c3dd3/2c/ B/A/Bdc3(3BAG  | G2z2 G2g2 fg=f2 efed2ed/c/d  | 
w:  Be nim  *  cür *  *  *  *  müm   |  *  ni hâ *  *  yet *  *  siz   | 
c2z2 d2e3/2d/ cde3de2 f/e/fg2  | g2z2 f2a3/2g/ =feed2cd6  | 
w:  *  mü kem *  *  *  mel *  lik   |  *  se nin  *  *  *  kâ *  *  rın    | 
z4 cde3/2d/ cde3/2d/ efg3/2f/ g_1/4bag  | \
w:  Câ *  nım  *  *  *  yel  *  *  *  lel   | 
f3/2e/d2 e=fed2c(3dc_1/4B B2B4AG  | 
w:  *  *  *  le  *  lel  *  *  lel  *  *  *  lel   | 
G2z2 G2=c2 _1/4B/^3/4A/Bd2 ^cde3/2g/ =fedc  | \
w:  *  mî rim  *  *  *  ten *  *  nen   | 
B3/2A/B2 ABd3/2c/ BAAG GFG6  | 
w:  ni  *  *  a  *  sul *  *  *  tâ *  *  *  nım    | 
z4 G2c3dd3/2c/ B/A/Bdc3(3BAG  | G2z2 G2g2 fg=f2 efed2ed/c/d  | 
w:  Be nim  *  cür *  *  *  *  müm   |  *  ni hâ *  *  yet *  *  siz   | 
c2z2 d2e3/2d/ cde3de2 f/e/fg2  | g2z2 f2a3/2g/ =feed2cd6  | 
w:  *  mü kem *  *  *  mel *  lik   |  *  se nin  *  *  *  kâ *  *  rın    | 
z4 cde3/2d/ cde3/2d/ efg3/2f/ g_1/4bag  | \
w:  Câ *  nım  *  *  *  yel  *  *  *  lel   | 
f3/2e/d2 e=fed2c(3dc_1/4B B2B4AG  | 
w:  *  *  *  le  *  lel  *  *  lel  *  *  *  lel   | 
G2z2 G2=c2 _1/4B/^3/4A/Bd2 ^cde3/2g/ =fedc  | \
w:  *  mî rim  *  *  *  ten *  *  nen   | 
B3/2A/B2 ABd3/2c/ BAAG GFG6  | 
w:  ni  *  *  a  *  sul *  *  *  tâ *  *  *  nım    | 
z4 d2f4f3/2e/ d2g2 f/^3/4e/fga  | \
w:  Sen  is ter *  *  sen   | 
{_1/4b}a2z2 a2_7/8b3ac'2 baag2a(3gf^3/4e  | 
w:  *  *  tü ken *  mez  *  *  bir   | 
f2z2 d2g2 ^1/4feed2ed3/2c/ cdcd  | \
w:  *  ba hâ *  *  ris *  *  tan   | 
(3dc_1/4BB2 B2=f2 edd3/2c/ Bc/d/cd d4  | 
w:  *  *  *  *  o lur  *  *  yıl *  *  *  *  lar    | 
z4 cde3/2d/ cde3/2d/ efg3/2f/ g_1/4bag  | \
w:  Câ *  nım  *  *  *  yel  *  *  *  lel   | 
f3/2e/d2 e=fed2c(3dc_1/4B B2B4AG  | 
w:  *  *  *  le  *  lel  *  *  lel  *  *  *  lel   | 
G2z2 G2=c2 _1/4B/^3/4A/Bd2 ^cde3/2g/ =fedc  | \
w:  *  mî rim  *  *  *  ten *  *  nen   | 
B3/2A/B2 ABd3/2c/ BAAG GFG6  | 
w:  ni  *  *  a  *  sul *  *  *  tâ *  *  *  nım    | 
z4 G2c3dd3/2c/ B/A/Bdc3(3BAG  | G2z2 G2g2 fg=f2 efed2ed/c/d  | 
w:  Be nim  *  cür *  *  *  *  müm   |  *  ni hâ *  *  yet *  *  siz   | 
c2z2 d2e3/2d/ cde3de2 f/e/fg2  | g2z2 f2a3/2g/ =feed2cd6  | 
w:  *  mü kem *  *  *  mel *  lik   |  *  se nin  *  *  *  kâ *  *  rın    | 
z4 cde3/2d/ cde3/2d/ efg3/2f/ g_1/4bag  | \
w:  Câ *  nım  *  *  *  yel  *  *  *  lel   | 
f3/2e/d2 e=fed2c(3dc_1/4B B2B4AG  | 
w:  *  *  *  le  *  lel  *  *  lel  *  *  *  lel   | 
G2z2 G2=c2 _1/4B/^3/4A/Bd2 ^cde3/2g/ =fedc  | \
w:  *  mî rim  *  *  *  ten *  *  nen   | 
B3/2A/B2 ABd3/2c/ BAAG GFG6  | 
w:  ni  *  *  a  *  sul *  *  *  tâ *  *  *  nım    | 
z4 G2c3dd3/2c/ B/A/Bdc3(3BAG  | G2z2 G2g2 fg=f2 efed2ed/c/d  | 
w:  Sen_ is *  ter *  *  *  *  sen   |  *  gül_ ek *  *  sil *  *  mez   | 
c2z2 d2e3/2d/ cde3de2 f/e/fg2  | g2z2 f2a3/2g/ =feed2cd6  | 
w:  *  ba hâ *  *  *  rın *  dan   |  *  bu  gül *  *  *  zâ *  *  rın    | 
z4 cde3/2d/ cde3/2d/ efg3/2f/ g_1/4bag  | \
w:  Câ *  nım  *  *  *  yel  *  *  *  lel   | 
f3/2e/d2 e=fed2c(3dc_1/4B B2B4AG  | 
w:  *  *  *  le  *  lel  *  *  lel  *  *  *  lel   | 
G2z2 G2=c2 _1/4B/^3/4A/Bd2 ^cde3/2g/ =fedc  | \
w:  *  mî rim  *  *  *  ten *  *  nen   | 
B3/2A/B2 ABd3/2c/ BAAG GFG6  | 
w:  ni  *  *  a  *  sul *  *  *  tâ *  *  *  nım    | 
z4 G2c3dd3/2c/ B/A/Bdc3(3BAG  | G2z2 G2g2 fg=f2 efed2ed/c/d  | 
w:  Be nim  *  cür *  *  *  *  müm   |  *  ni hâ *  *  yet *  *  siz   | 
c2z2 d2e3/2d/ cde3de2 f/e/fg2  | g2z2 f2a3/2g/ =feed2cd6  | 
w:  *  mü kem *  *  *  mel *  lik   |  *  se nin  *  *  *  kâ *  *  rın    | 
z4 cde3/2d/ cde3/2d/ efg3/2f/ g_1/4bag  | \
w:  Câ *  nım  *  *  *  yel  *  *  *  lel   | 
f3/2e/d2 e=fed2c(3dc_1/4B B2B4AG  | 
w:  *  *  *  le  *  lel  *  *  lel  *  *  *  lel   | 
G2z2 G2=c2 _1/4B/^3/4A/Bd2 ^cde3/2g/ =fedc  | \
w:  *  mî rim  *  *  *  ten *  *  nen   | 
B3/2A/B2 ABd3/2c/ BAAG GFG6  | 
w:  ni  *  *  a  *  sul *  *  *  tâ *  *  *  nım    | 
|


